public/flags/LB.svg

<svg fill="none" height="53" viewBox="0 0 61 53" width="61" xmlns="http://www.w3.org/2000/svg" xmlns:xlink="http://www.w3.org/1999/xlink"><mask id="a" height="43" maskUnits="userSpaceOnUse" width="59" x="1" y="3"><rect fill="#fff" height="41.4393" rx="3.7125" stroke="#fff" stroke-width="1.06071" width="57.9393" x="1.53036" y="3.53036"/></mask><rect fill="#fff" height="41.4393" rx="3.7125" stroke="#f5f5f5" stroke-width="1.06071" width="57.9393" x="1.53036" y="3.53036"/><g clip-rule="evenodd" fill-rule="evenodd" mask="url(#a)"><path d="m1 14.3333h59v-11.3333h-59z" fill="#f03340"/><path d="m1 45.5h59v-11.3334h-59z" fill="#f03340"/><path d="m28.2737 29.3284c.4547-.4586.4547-1.1981 0-1.6568l-.16-.1613c-.2624-.2646-.645-.3711-1.0064-.2799l-.7795.1965c-.9418.2374-1.5301-.989-.7554-1.5749l.7238-.5475c.4486-.3394.2087-1.0545-.3539-1.0545-.6179 0-.8159-.8322-.2641-1.1104l1.2147-.6125c.5518-.2782.3539-1.1104-.2641-1.1104-.5625 0-.8025-.7151-.3538-1.0545l3.3717-2.5502c.5047-.3818 1.2016-.3818 1.7063 0l3.3718 2.5502c.4486.3394.2086 1.0545-.3539 1.0545-.6179 0-.8159.8322-.2641 1.1104l1.2147.6125c.5518.2782.3538 1.1104-.2641 1.1104-.5625 0-.8025.7151-.3539 1.0545l.7239.5475c.7746.5859.1863 1.8123-.7555 1.5749l-.7795-.1965c-.3613-.0912-.744.0153-1.0064.2799l-.1599.1613c-.4548.4587-.4548 1.1982 0 1.6568.7363.7426.2103 2.005-.8355 2.005h-2.7815c-1.0458 0-1.5718-1.2624-.8354-2.005z" fill="#1fc065"/></g></svg>

<svg width="61" height="53" viewBox="0 0 61 53" fill="none" xmlns="http://www.w3.org/2000/svg">
<rect x="1.53036" y="3.53036" width="57.9393" height="41.4393" rx="3.7125" fill="white" stroke="#F5F5F5" stroke-width="1.06071"/>
<mask id="mask0" mask-type="alpha" maskUnits="userSpaceOnUse" x="1" y="3" width="59" height="43">
<rect x="1.53036" y="3.53036" width="57.9393" height="41.4393" rx="3.7125" fill="white" stroke="white" stroke-width="1.06071"/>
</mask>
<g mask="url(#mask0)">
<path fill-rule="evenodd" clip-rule="evenodd" d="M1 14.3333H60V3H1V14.3333Z" fill="#F03340"/>
<path fill-rule="evenodd" clip-rule="evenodd" d="M1 45.5H60V34.1666H1V45.5Z" fill="#F03340"/>
<path fill-rule="evenodd" clip-rule="evenodd" d="M28.2737 29.3284C28.7284 28.8698 28.7284 28.1303 28.2737 27.6716L28.1137 27.5103C27.8513 27.2457 27.4687 27.1392 27.1073 27.2304L26.3278 27.4269C25.386 27.6643 24.7977 26.4379 25.5724 25.852L26.2962 25.3045C26.7448 24.9651 26.5049 24.25 25.9423 24.25V24.25C25.3244 24.25 25.1264 23.4178 25.6782 23.1396L26.8929 22.5271C27.4447 22.2489 27.2468 21.4167 26.6288 21.4167V21.4167C26.0663 21.4167 25.8263 20.7016 26.275 20.3622L29.6467 17.812C30.1514 17.4302 30.8483 17.4302 31.353 17.812L34.7248 20.3622C35.1734 20.7016 34.9334 21.4167 34.3709 21.4167V21.4167C33.753 21.4167 33.555 22.2489 34.1068 22.5271L35.3215 23.1396C35.8733 23.4178 35.6753 24.25 35.0574 24.25V24.25C34.4949 24.25 34.2549 24.9651 34.7035 25.3045L35.4274 25.852C36.202 26.4379 35.6137 27.6643 34.6719 27.4269L33.8924 27.2304C33.5311 27.1392 33.1484 27.2457 32.886 27.5103L32.7261 27.6716C32.2713 28.1303 32.2713 28.8698 32.7261 29.3284V29.3284C33.4624 30.071 32.9364 31.3334 31.8906 31.3334H29.1091C28.0633 31.3334 27.5373 30.071 28.2737 29.3284V29.3284Z" fill="#1FC065"/>
</g>
</svg>
